X:1
T:Short Circuit
M:7/8
L:1/8
C:Harry Ferguson
H:2/20/2003
Q:1/1=350
K:G
|: B,B,G2 GED | GAB d2d2 |[1 c/d/ec BcBc | GAF EFD2 :|[2 c/d/ec BcBA| FG2 G4 ||
| dBB dBcA | cAA cAcA | BGG BGAG | AGG EGDG |
| DGB g2d2 | edc BcG2 | GBc d2d2 | BcA G4 |
| DGB d2BC | CEG cEGC | B,DG B2G2 | A2F E2D2 |
| {DEF}GBd g2d2 | edc BcG2 | GBc d2dA | BcA G4 |


